packages/debug/src/browser/style/step-out-inverse.svg

<svg viewBox="0 0 16 16" xmlns="http://www.w3.org/2000/svg"><path d="m16 16h-16v-16h16z" fill="#252526" opacity="0"/><path d="m8 11a2 2 0 1 1 -2 2 2 2 0 0 1 2-2z" fill="#c5c5c5"/><path d="m3.97 4.72 4.03-4.031 4.03 4.03-1.06 1.061-1.97-1.969v6.189h-2v-6.189l-1.97 1.969z" fill="#75beff"/></svg>

<!--Copyright (c) Microsoft Corporation. All rights reserved.-->
<!--Copyright (C) 2018 TypeFox and others.-->
<!--Licensed under the MIT License. See License.txt in the project root for license information.-->
<svg xmlns="http://www.w3.org/2000/svg" viewBox="0 0 16 16"><defs><style>.icon-canvas-transparent,.icon-vs-out{fill:#252526;}.icon-canvas-transparent{opacity:0;}.icon-vs-bg{fill:#c5c5c5;}.icon-vs-action-blue{fill:#75beff;}</style></defs><title>step-out</title><g id="canvas"><path class="icon-canvas-transparent" d="M16,16H0V0H16Z"/></g><g id="outline" style="display: none;"><path class="icon-vs-out" d="M10,10.78a3,3,0,1,1-4,0V6.225l-.97.97L2.556,4.72,7.275,0H8.725l4.72,4.72L10.97,7.194,10,6.225Z"/></g><g id="iconBg"><path class="icon-vs-bg" d="M8,11a2,2,0,1,1-2,2A2,2,0,0,1,8,11Z"/></g><g id="colorAction"><path class="icon-vs-action-blue" d="M3.97,4.72,8,.689l4.03,4.03L10.97,5.78,9,3.811V10H7V3.811L5.03,5.78Z"/></g></svg>
